desktop-theme/widgets/containment-controls.svg

<svg width="128" height="128" xmlns="http://www.w3.org/2000/svg" xmlns:svg="http://www.w3.org/2000/svg">
  <defs>
    <style id="current-color-scheme" type="text/css">
      .ColorScheme-ButtonText {
        color: #31363b;
      }

      .ColorScheme-Background {
        color: #282a2d;
      }

      .ColorScheme-ViewText {
        color: #31363b;
      }

      .ColorScheme-ViewBackground {
        color: #fcfcfc;
      }

      .ColorScheme-ViewHover {
        color: #3daee9;
      }

      .ColorScheme-ViewFocus {
        color: #3daee9;
      }

      .ColorScheme-ButtonText {
        color: #31363b;
      }

      .ColorScheme-ButtonBackground {
        color: #eff0f1;
      }

      .ColorScheme-ButtonHover {
        color: #3daee9;
      }

      .ColorScheme-ButtonFocus {
        color: #3daee9;
      }
    </style>
  </defs>
  <rect id="hint-tile-center" height="5" width="5" opacity="0.65" fill="#023812" />
  <g id="vertical-centerindicator">
    <rect width="42" height="1" x="6" y="0" class="ColorScheme-Background" fill="currentColor" opacity="0.4"
      id="rect6" />
  </g>
  <g id="horizontal-centerindicator">
    <rect width="1" height="42" x="0" y="6" class="ColorScheme-Background" fill="currentColor" opacity="0.4"
      id="rect7" />
  </g>
  <g id="south-maxslider" transform="translate(20,20)">
    <rect width="36" height="15" rx="3" ry="3" fill="none" id="rect8" />
    <rect height="11" width="2" y="2" x="17" class="ColorScheme-Background" fill="currentColor" id="rect9" />
    <path
      d="m 11.6875,2.156249 -0.75,0.6875 4.15625,4.15625 H 3.000003 v 1 H 15.09375 l -4.15625,4.15625 0.6875,0.6875 5,-5 L 17,7.499999 16.625,7.156249 Z"
      class="ColorScheme-Background" fill="currentColor" id="path9" />
  </g>
  <g id="south-minslider" transform="translate(20,20)">
    <rect width="36" height="15" ry="3" rx="3" fill="none" id="rect1" />
    <rect width="2" height="11" x="17" y="2" class="ColorScheme-Background" fill="currentColor" id="rect2" />
    <path class="ColorScheme-Background" fill="currentColor"
      d="m 24.375,2.156249 0.6875,0.6875 -4.15625,4.15625 H 33 v 1 H 20.90625 l 4.15625,4.15625 -0.6875,0.6875 -5,-5 L 19,7.499999 19.375,7.156249 Z"
      id="path2" />
  </g>
  <g id="south-offsetslider" transform="translate(20,20)">
    <rect width="28" height="19" fill="#fcfcfc" opacity="0.01" fill-opacity="0.004" id="rect12" />
    <path d="m 14.075686,11.970771 7.199365,-9.97077 H 6.87632 Z" class="ColorScheme-Background" fill="currentColor"
      id="path12" />
  </g>
  <g id="north-maxslider" transform="translate(20,20)">
    <rect width="36" height="15" rx="3" ry="3" x="0" y="0" fill="none" id="rect3" />
    <rect width="2" height="11" x="17" y="2" class="ColorScheme-Background" fill="currentColor" id="rect4" />
    <path class="ColorScheme-Background" fill="currentColor"
      d="m 11.6875,2.156249 -0.75,0.6875 4.15625,4.15625 H 3.000003 v 1 H 15.09375 l -4.15625,4.15625 0.6875,0.6875 5,-5 L 17,7.499999 16.625,7.156249 Z"
      id="path4" />
  </g>
  <g id="north-offsetslider" transform="translate(20,20)">
    <rect width="28" height="19" fill="none" id="rect5" />
    <path d="m 14.075686,7.0292267 7.199365,9.9707703 H 6.87632 Z" class="ColorScheme-Background" fill="currentColor"
      id="path5" />
  </g>
  <g id="north-minslider" transform="translate(20,20)">
    <rect width="36" height="15" rx="3" ry="3" fill="none" id="rect10" />
    <rect width="2" height="11" x="17" y="2" class="ColorScheme-Background" fill="currentColor" id="rect11" />
    <path class="ColorScheme-Background" fill="currentColor"
      d="m 24.375,2.156251 0.6875,0.6875 -4.15625,4.15625 H 33 v 1 H 20.90625 l 4.15625,4.15625 -0.6875,0.6875 -5,-5 L 19,7.500001 19.375,7.156251 Z"
      id="path11" />
  </g>
  <g id="east-maxslider" transform="translate(20,20)">
    <rect width="15" height="36" rx="3" ry="3" fill="none" id="rect13" />
    <rect width="11" height="2" x="2" y="17" class="ColorScheme-Background" fill="currentColor" id="rect14" />
    <path class="ColorScheme-Background" fill="currentColor"
      d="m 12.84375,11.687502 -0.6875,-0.75 L 8,15.093752 V 3.000003 H 7 v 12.093749 l -4.156252,-4.15625 -0.6875,0.6875 5.000002,5 0.34375,0.375 0.34375,-0.375 z"
      id="path14" />
  </g>
  <g id="east-offsetslider" transform="translate(20,20)">
    <rect width="19" height="28" fill="none" id="rect15" />
    <path class="ColorScheme-Background" fill="currentColor" d="M 11.970771,14.075686 2.000001,21.27505 V 6.87632 Z"
      id="path15" />
  </g>
  <g id="east-minslider">
    <rect width="15" height="36" ry="3" rx="3" fill="none" />
    <rect width="11" height="2" x="2" y="17" class="ColorScheme-Background" fill="currentColor" />
    <path class="ColorScheme-Background" fill="currentColor"
      d="m 12.843751,24.375001 -0.6875,0.6875 -4.15625,-4.15625 V 33 h -1 V 20.906251 l -4.15625,4.15625 -0.6875,-0.6875 5,-5 0.34375,-0.375 0.34375,0.375 z" />
  </g>
  <rect id="south-center" width="10" height="12" x="71" y="66" class="ColorScheme-ButtonText" fill="currentColor"
    opacity="0.8" />
  <rect id="south-bottom" width="10" height="1" x="71" y="78" class="ColorScheme-ButtonText" fill="currentColor"
    opacity="0.8" />
  <rect id="south-top" width="10" height="1" x="71" y="65" class="ColorScheme-ButtonText" fill="currentColor"
    opacity="0.8" />
  <rect id="north-center" width="10" height="12" x="70" y="29" class="ColorScheme-ButtonText" fill="currentColor"
    opacity="0.8" />
  <rect id="north-bottom" width="10" height="1" x="70" y="41" class="ColorScheme-ButtonText" fill="currentColor"
    opacity="0.8" />
  <rect id="north-top" width="10" height="1" x="70" y="28" class="ColorScheme-ButtonText" fill="currentColor"
    opacity="0.8" />
  <rect id="west-center" width="12" height="10" x="6" y="113" class="ColorScheme-ButtonText" fill="currentColor"
    opacity="0.8" />
  <rect id="west-left" width="1" height="10" x="5" y="113" class="ColorScheme-ButtonText" fill="currentColor"
    opacity="0.8" />
  <rect id="west-right" width="1" height="10" x="18" y="113" class="ColorScheme-ButtonText" fill="currentColor"
    opacity="0.8" />
  <rect id="east-center" width="12" height="10" x="78" y="112" class="ColorScheme-ButtonText" fill="currentColor"
    opacity="0.8" />
  <rect id="east-left" width="1" height="10" x="77" y="112" class="ColorScheme-ButtonText" fill="currentColor"
    opacity="0.8" />
  <rect id="east-right" width="1" height="10" x="90" y="112" class="ColorScheme-ButtonText" fill="currentColor"
    opacity="0.8" />
  <g id="west-maxslider" transform="matrix(0,0.73968509,-0.73968509,0,-38.20676,153.52649)" inkscape:label="#g5481">
    <rect ry="3" rx="3" transform="matrix(1.3519267,0,0,1.3519267,-107.51398,-181.4377)" y="57" x="8.000001" height="15"
      width="36" id="rect3901" style="opacity:0.01;fill:#fcfcfc;fill-opacity:0.00392157;stroke:none" />
    <rect style="fill:currentColor;fill-opacity:1;stroke:none" id="rect3903" width="2.7038541" height="14.871195"
      x="-73.715813" y="-101.67403" class="ColorScheme-Background" />
    <path class="ColorScheme-Background" id="path3905" transform="matrix(1.3519267,0,0,1.3519267,-107.51398,-181.4377)"
      d="m 19.6875,59.15625 -0.75,0.6875 L 23.09375,64 H 11.000001 v 1 H 23.09375 l -4.15625,4.15625 0.6875,0.6875 5,-5 L 25,64.5 24.625,64.15625 Z"
      style="fill:currentColor;fill-opacity:1;stroke:none" />
  </g>
  <g id="west-offsetslider" transform="matrix(0,0.73968509,-0.73968509,0,-57.20016,149.5296)" inkscape:label="#g5494">
    <rect transform="matrix(1.3519267,0,0,1.3519267,-37.218,-180.07685)" y="56" x="-40" height="19" width="28"
      id="rect3909" style="opacity:0.01;fill:#fcfcfc;fill-opacity:0.00392157;stroke:none" />
    <path class="ColorScheme-Background" id="path3911" d="m -72.265772,-88.18535 9.733014,-13.47975 h -19.466029 z"
      inkscape:transform-center-y="0.9853864" style="fill:currentColor;fill-opacity:1;stroke:none" />
  </g>
  <g inkscape:label="#g5481" transform="matrix(0,-0.73968509,-0.73968509,0,-18.70676,46.473514)" id="west-minslider">
    <rect style="opacity:0.01;fill:#fcfcfc;fill-opacity:0.00392157;stroke:none" id="rect3915" width="36" height="15"
      x="8.000001" y="57" transform="matrix(1.3519267,0,0,1.3519267,-107.51398,-181.4377)" rx="3" ry="3" />
    <rect class="ColorScheme-Background" y="-101.67403" x="-73.715813" height="14.871195" width="2.7038541"
      id="rect3917" style="fill:currentColor;fill-opacity:1;stroke:none" />
    <path class="ColorScheme-Background" style="fill:currentColor;fill-opacity:1;stroke:none"
      d="m 19.625001,59.15625 -0.6875,0.6875 L 23.093751,64 H 11.000002 v 1 h 12.093749 l -4.15625,4.15625 0.6875,0.6875 5,-5 0.375,-0.34375 -0.375,-0.34375 z"
      transform="matrix(1.3519267,0,0,1.3519267,-107.51398,-181.4377)" id="path3919" />
  </g>
</svg>

<svg width="80" height="72" xmlns="http://www.w3.org/2000/svg" xmlns:svg="http://www.w3.org/2000/svg">
  <defs>
    <style id="current-color-scheme" type="text/css">
      .ColorScheme-ButtonText {
        color: #31363b;
      }

      .ColorScheme-Background {
        color: #282a2d;
      }

      .ColorScheme-ViewText {
        color: #31363b;
      }

      .ColorScheme-ViewBackground {
        color: #fcfcfc;
      }

      .ColorScheme-ViewHover {
        color: #3daee9;
      }

      .ColorScheme-ViewFocus {
        color: #3daee9;
      }

      .ColorScheme-ButtonText {
        color: #31363b;
      }

      .ColorScheme-ButtonBackground {
        color: #eff0f1;
      }

      .ColorScheme-ButtonHover {
        color: #3daee9;
      }

      .ColorScheme-ButtonFocus {
        color: #3daee9;
      }
    </style>
  </defs>
  <rect id="hint-tile-center" height="5" width="5" opacity="0.65" fill="#023812" />
  <g id="vertical-centerindicator">
    <rect width="42" height="1" x="6" y="0" class="ColorScheme-Background" fill="currentColor" opacity="0.4" />
  </g>
  <g id="horizontal-centerindicator">
    <rect width="1" height="42" x="0" y="6" class="ColorScheme-Background" fill="currentColor" opacity="0.4" />
  </g>
  <g id="south-maxslider">
    <rect width="36" height="15" rx="3" ry="3" fill="none" x="0" y="0" />
    <rect height="11" width="2" y="2" x="17" class="ColorScheme-Background" fill="currentColor" />
    <path
      d="M 11.688,2.156 10.938,2.844 15.094,7 H 3 v 1 h 12.094 l -4.156,4.156 0.688,0.688 5,-5 L 17,7.5 16.625,7.156 Z"
      class="ColorScheme-Background" fill="currentColor" />
  </g>
  <g id="south-minslider" transform="translate(4)">
    <rect width="36" height="15" ry="3" rx="3" fill="none" x="0" y="0" />
    <rect width="2" height="11" x="17" y="2" class="ColorScheme-Background" fill="currentColor" />
    <path class="ColorScheme-Background" fill="currentColor"
      d="M 24.375,2.156 25.063,2.844 20.907,7 H 33 V 8 H 20.906 l 4.156,4.156 -0.688,0.688 -5,-5 L 19,7.5 19.375,7.156 Z" />
  </g>
  <g id="south-offsetslider" transform="translate(30,51)">
    <rect width="28" height="19" fill="#fcfcfc" opacity="0.01" fill-opacity="0.004" x="0" y="0" />
    <path d="M 14.076,11.971 21.275,2 H 6.876 Z" class="ColorScheme-Background" fill="currentColor" />
  </g>
  <g id="north-maxslider" transform="translate(0,17)">
    <rect width="36" height="15" rx="3" ry="3" x="0" y="0" fill="none" />
    <rect width="2" height="11" x="17" y="2" class="ColorScheme-Background" fill="currentColor" />
    <path class="ColorScheme-Background" fill="currentColor"
      d="M 11.688,2.156 10.938,2.844 15.094,7 H 3 v 1 h 12.094 l -4.156,4.156 0.688,0.688 5,-5 L 17,7.5 16.625,7.156 Z" />
  </g>
  <g id="north-minslider" transform="translate(4,17)">
    <rect width="36" height="15" rx="3" ry="3" fill="none" x="0" y="0" />
    <rect width="2" height="11" x="17" y="2" class="ColorScheme-Background" fill="currentColor" />
    <path class="ColorScheme-Background" fill="currentColor"
      d="M 24.375,2.156 25.063,2.844 20.907,7 H 33 V 8 H 20.906 l 4.156,4.156 -0.688,0.688 -5,-5 L 19,7.5 19.375,7.156 Z" />
  </g>
  <g id="north-offsetslider" transform="translate(30,32)">
    <rect width="28" height="19" fill="none" x="0" y="0" />
    <path d="M 14.076,7.029 21.275,17 H 6.876 Z" class="ColorScheme-Background" fill="currentColor" />
  </g>
  <g id="east-maxslider" transform="translate(0,32)">
    <rect width="15" height="36" rx="3" ry="3" fill="none" x="0" y="0" />
    <rect width="11" height="2" x="2" y="17" class="ColorScheme-Background" fill="currentColor" />
    <path class="ColorScheme-Background" fill="currentColor"
      d="M 12.844,11.688 12.156,10.938 8,15.094 V 3 H 7 v 12.094 l -4.156,-4.156 -0.688,0.688 5,5 0.344,0.375 0.344,-0.375 z" />
  </g>
  <g id="east-minslider" transform="translate(0,36)">
    <rect width="15" height="36" ry="3" rx="3" fill="none" x="0" y="0" />
    <rect width="11" height="2" x="2" y="17" class="ColorScheme-Background" fill="currentColor" />
    <path class="ColorScheme-Background" fill="currentColor"
      d="M 12.844,24.375 12.156,25.063 8,20.907 V 33 H 7 V 20.906 l -4.156,4.156 -0.688,-0.688 5,-5 0.344,-0.375 0.344,0.375 z" />
  </g>
  <g id="east-offsetslider" transform="translate(59)">
    <rect width="19" height="28" fill="none" x="0" y="0" />
    <path class="ColorScheme-Background" fill="currentColor" d="M 11.971,14.076 2,21.275 V 6.876 Z" />
  </g>
  <g id="west-maxslider" transform="translate(15,32)">
    <rect width="15" height="36" fill="none" x="0" y="0" />
    <rect width="11" height="2" x="2" y="17" class="ColorScheme-Background" fill="currentColor" />
    <path class="ColorScheme-Background" fill="currentColor"
      d="M 12.844,11.688 12.156,10.938 8,15.094 V 3 H 7 v 12.094 l -4.156,-4.156 -0.688,0.688 5,5 L 7.5,17 7.844,16.625 Z" />
  </g>
  <g id="west-minslider" transform="translate(15,36)">
    <rect width="15" height="36" fill="none" x="0" y="0" />
    <rect width="11" height="2" x="2" y="17" class="ColorScheme-Background" fill="currentColor" />
    <path class="ColorScheme-Background" fill="currentColor"
      d="M 12.844,24.375 12.156,25.063 8,20.907 V 33 H 7 V 20.906 l -4.156,4.156 -0.688,-0.688 5,-5 0.344,-0.375 0.344,0.375 z" />
  </g>
  <g id="west-offsetslider" transform="translate(40)">
    <rect width="19" height="28" fill="none" x="0" y="0" />
    <path d="M 7.029,14.076 17,21.275 V 6.876 Z" class="ColorScheme-Background" fill="currentColor" />
  </g>
  <rect id="south-center" width="10" height="12" x="58" y="29" class="ColorScheme-ButtonText" fill="currentColor"
    opacity="0.8" />
  <rect id="south-bottom" width="10" height="1" x="58" y="41" class="ColorScheme-ButtonText" fill="currentColor"
    opacity="0.8" />
  <rect id="south-top" width="10" height="1" x="58" y="28" class="ColorScheme-ButtonText" fill="currentColor"
    opacity="0.8" />
  <rect id="north-center" width="10" height="12" x="70" y="29" class="ColorScheme-ButtonText" fill="currentColor"
    opacity="0.8" />
  <rect id="north-bottom" width="10" height="1" x="70" y="41" class="ColorScheme-ButtonText" fill="currentColor"
    opacity="0.8" />
  <rect id="north-top" width="10" height="1" x="70" y="28" class="ColorScheme-ButtonText" fill="currentColor"
    opacity="0.8" />
  <rect id="east-center" width="12" height="10" x="59" y="44" class="ColorScheme-ButtonText" fill="currentColor"
    opacity="0.8" />
  <rect id="east-left" width="1" height="10" x="58" y="44" class="ColorScheme-ButtonText" fill="currentColor"
    opacity="0.8" />
  <rect id="east-right" width="1" height="10" x="71" y="44" class="ColorScheme-ButtonText" fill="currentColor"
    opacity="0.8" />
  <rect id="west-center" width="12.171" height="10" x="59.014" y="56" class="ColorScheme-ButtonText" fill="currentColor"
    opacity="0.8" style="stroke-width:1" />
  <rect id="west-left" width="1.014" height="10" x="58" y="56" class="ColorScheme-ButtonText" fill="currentColor"
    opacity="0.8" style="stroke-width:1" />
  <rect id="west-right" width="1.014" height="10" x="71.186" y="56" class="ColorScheme-ButtonText" fill="currentColor"
    opacity="0.8" style="stroke-width:1" />
</svg>
